assets/icons/agricolture.svg

<svg width="33" height="52" viewBox="0 0 33 52" fill="none" xmlns="http://www.w3.org/2000/svg">
<path d="M11.6297 35.6628C12.5077 36.3319 13.6057 36.8434 14.8383 37.1328L14.8226 34.8857C13.6249 34.6202 12.5349 34.1583 11.6149 33.5477L11.6297 35.6628Z" fill="white"/>
<path d="M15.642 35.0335L15.6577 37.2892C16.1496 37.3618 16.6579 37.4003 17.1783 37.4003C17.7593 37.4003 18.3246 37.3513 18.869 37.2616L18.8513 35.0147C18.31 35.0979 17.7508 35.1424 17.1783 35.1424C16.6537 35.1424 16.1408 35.1038 15.642 35.0335Z" fill="white"/>
<path d="M16.7691 25.1631V26.0598C13.4389 26.1883 10.6635 27.8775 9.76823 30.1486C10.5186 32.0522 12.5895 33.5466 15.2013 34.0561C15.2096 34.0555 15.2174 34.0533 15.2257 34.0533C15.2269 34.0533 15.2279 34.0533 15.2289 34.0533C15.2866 34.0533 15.3414 34.0669 15.3914 34.0906C15.8372 34.1687 16.2972 34.2194 16.769 34.2377H17.5874C20.9174 34.1093 23.6928 32.4198 24.5881 30.1487C23.6928 27.8775 20.9174 26.1884 17.5874 26.0599V25.1632C20.7906 25.2803 23.5369 26.763 24.8631 28.8707L24.8587 28.0402C24.5055 25.2599 21.4114 23.0559 17.5874 22.9084V11.2689C19.6828 9.34694 20.715 7.57612 20.7364 5.87378C20.759 4.06867 19.6727 2.18578 17.4167 0.124023C15.0287 1.74097 13.7546 3.47873 13.6281 5.29191C13.4989 7.14454 14.5556 9.17671 16.769 11.3393V16.8137C16.2045 14.3773 14.9937 13.1831 13.1035 13.1831C12.2551 13.1831 11.2564 13.4235 10.1318 13.8975C10.3253 17.9665 11.6262 19.786 14.3263 19.7863C14.3265 19.7863 14.3267 19.7863 14.3269 19.7863C15.0361 19.7863 15.8402 19.6664 16.769 19.4229V22.9083C12.9573 23.0555 9.87022 25.2454 9.50031 28.0128L9.495 28.8678C10.8221 26.7616 13.5673 25.2802 16.7691 25.1631Z" fill="white"/>
<path d="M10.7921 32.9232C10.2686 32.4683 9.82448 31.958 9.47933 31.4041L9.47534 32.0409C9.55493 33.1049 10.0349 34.0917 10.8061 34.921L10.7921 32.9232Z" fill="white"/>
<path d="M8.67235 39.0177C12.0499 39.0177 14.9751 40.5357 16.3575 42.7318L16.3531 41.9007C15.988 39.0215 12.6833 36.7597 8.67235 36.7597C4.67399 36.7597 1.37698 39.007 0.994495 41.8736L0.98938 42.7286C2.37263 40.5343 5.29657 39.0177 8.67235 39.0177Z" fill="white"/>
<path d="M17.4981 42.2907L17.4928 43.1452C18.8758 40.9498 21.8 39.4325 25.176 39.4325C28.5534 39.4325 31.4784 40.9511 32.8609 43.1478L32.8565 42.3169C32.4907 39.4366 29.1864 37.1744 25.176 37.1744C21.1777 37.1745 17.8805 39.4228 17.4981 42.2907Z" fill="white"/>
<path d="M22.8834 33.4532C21.9685 34.088 20.8749 34.5723 19.6685 34.8563L19.6862 37.091C20.9301 36.7756 22.0317 36.2336 22.8972 35.5307L22.8834 33.4532Z" fill="white"/>
<path d="M0.974346 45.2654L0.970459 45.9116C1.0525 46.9714 1.53165 47.9545 2.3004 48.781L2.28731 46.7842C1.76366 46.3291 1.31959 45.8191 0.974346 45.2654Z" fill="white"/>
<path d="M23.6976 32.805L23.7103 34.7405C24.3849 33.953 24.804 33.036 24.8802 32.0521L24.8768 31.4052C24.5613 31.9111 24.1633 32.3806 23.6976 32.805Z" fill="white"/>
<path d="M27.666 49.1334L27.6827 51.3658C28.9277 51.0505 30.0302 50.5085 30.8961 49.8052L30.8815 47.7303C29.9664 48.3651 28.8727 48.8494 27.666 49.1334Z" fill="white"/>
<path d="M25.176 40.329C21.6659 40.329 18.6978 42.0624 17.766 44.426C18.5163 46.3294 20.587 47.8235 23.1988 48.3333C23.2071 48.3326 23.215 48.3305 23.2235 48.3303C23.2245 48.3303 23.2257 48.3303 23.2267 48.3303C23.2845 48.3303 23.3395 48.3438 23.3894 48.3677C23.9632 48.4681 24.5608 48.5229 25.1759 48.5229C28.6861 48.5229 31.6541 46.7895 32.5859 44.426C31.6542 42.0624 28.6862 40.329 25.176 40.329Z" fill="white"/>
<path d="M25.1761 49.4194C24.6515 49.4194 24.1384 49.3808 23.6396 49.3105L23.6553 51.5634C24.1472 51.636 24.6555 51.6745 25.176 51.6745C25.7565 51.6745 26.3213 51.6257 26.8655 51.536L26.8487 49.2921C26.3076 49.3752 25.7486 49.4194 25.1761 49.4194Z" fill="white"/>
<path d="M32.8745 45.6824C32.5591 46.1883 32.161 46.658 31.6954 47.0824L31.709 49.0152C32.383 48.2283 32.8019 47.312 32.878 46.3292L32.8745 45.6824Z" fill="white"/>
<path d="M19.6125 47.8248L19.6274 49.9379C20.5053 50.6066 21.6033 51.1181 22.8359 51.407L22.8203 49.1628C21.6226 48.8973 20.5326 48.4355 19.6125 47.8248Z" fill="white"/>
<path d="M11.1637 48.7157L11.1805 50.9505C12.4249 50.6351 13.5268 50.0929 14.3924 49.3896L14.377 47.3132C13.4623 47.9474 12.3694 48.4316 11.1637 48.7157Z" fill="white"/>
<path d="M17.4769 45.681L17.4729 46.3171C17.5522 47.3809 18.0324 48.3672 18.8038 49.1963L18.7898 47.2003C18.2661 46.7455 17.822 46.235 17.4769 45.681Z" fill="white"/>
<path d="M8.67232 49.002C8.14805 49.002 7.63545 48.9635 7.13696 48.8934L7.1518 51.1488C7.64363 51.2212 8.15184 51.26 8.67232 51.26C9.25325 51.26 9.81864 51.2109 10.3632 51.121L10.3463 48.8741C9.80473 48.9575 9.24527 49.002 8.67232 49.002Z" fill="white"/>
<path d="M8.67232 39.9142C5.16232 39.9142 2.19449 41.6467 1.26257 44.0087C2.01312 45.9121 4.08391 47.4062 6.69564 47.9158C6.70424 47.9152 6.71252 47.9128 6.72132 47.9128C6.72234 47.9128 6.72337 47.9128 6.72429 47.9128C6.78239 47.9128 6.83743 47.9266 6.88755 47.9505C7.46082 48.0508 8.05793 48.1054 8.67232 48.1054C12.1823 48.1054 15.1502 46.3721 16.0822 44.0087C15.1502 41.6467 12.1823 39.9142 8.67232 39.9142Z" fill="white"/>
<path d="M3.10974 47.4081L3.12365 49.5225C4.00167 50.1917 5.09972 50.7032 6.33229 50.9925L6.31756 48.7454C5.11977 48.4804 4.0299 48.0185 3.10974 47.4081Z" fill="white"/>
<path d="M19.2984 38.0916C18.6203 38.2255 17.9101 38.2969 17.1783 38.2969C16.4521 38.2969 15.747 38.2261 15.0734 38.0941C16.002 38.9051 16.6745 39.8927 16.9946 40.9825C17.425 39.8665 18.2303 38.8744 19.2984 38.0916Z" fill="white"/>
<path d="M15.1904 46.6658L15.2048 48.5997C15.879 47.8122 16.298 46.8954 16.3742 45.912L16.3707 45.2648C16.0551 45.7713 15.6566 46.2412 15.1904 46.6658Z" fill="white"/>
</svg>

<svg xmlns="http://www.w3.org/2000/svg" width="33" height="52" fill="#fff" xmlns:v="https://vecta.io/nano"><path d="M11.63 35.663c.878.67 1.976 1.18 3.2 1.47l-.016-2.247c-1.198-.266-2.288-.727-3.208-1.338l.015 2.115zm4.012-.63l.016 2.256a10.36 10.36 0 0 0 1.52.11 10.4 10.4 0 0 0 1.691-.139l-.018-2.247a11.01 11.01 0 0 1-1.673.128 11 11 0 0 1-1.536-.109zm1.128-9.87v.897c-3.33.13-6.106 1.818-7 4.1.75 1.904 2.82 3.398 5.433 3.908.008-.001.016-.003.024-.003a.38.38 0 0 1 .166.037c.446.078.906.13 1.378.147h.818c3.33-.128 6.105-1.818 7-4.1-.895-2.27-3.67-3.96-7-4.1v-.897c3.203.117 5.95 1.6 7.276 3.707l-.004-.83c-.353-2.78-3.447-4.984-7.27-5.132V11.27c2.095-1.922 3.128-3.693 3.15-5.395.023-1.805-1.064-3.688-3.32-5.75-2.388 1.617-3.662 3.355-3.8 5.168-.13 1.853.928 3.885 3.14 6.047v5.474c-.564-2.436-1.775-3.63-3.665-3.63-.848 0-1.847.24-2.972.714.194 4.07 1.494 5.9 4.195 5.9.7 0 1.514-.12 2.443-.363V22.9c-3.812.147-6.9 2.337-7.27 5.104l-.005.855c1.327-2.106 4.072-3.588 7.274-3.705zm-5.978 7.76c-.524-.455-.968-.965-1.313-1.52l-.004.637c.08 1.064.56 2.05 1.33 2.88l-.014-1.998zm-2.12 6.095c3.378 0 6.303 1.518 7.685 3.714l-.004-.83c-.365-2.88-3.67-5.14-7.68-5.14-3.998 0-7.295 2.247-7.678 5.114L1 42.73c1.383-2.194 4.307-3.7 7.683-3.7zm8.826 3.272l-.005.855c1.383-2.195 4.307-3.713 7.683-3.713s6.302 1.52 7.685 3.715l-.004-.83c-.366-2.88-3.67-5.142-7.68-5.142-3.998 0-7.295 2.248-7.678 5.116zm5.385-8.837c-.915.635-2 1.12-3.215 1.403l.018 2.235c1.244-.315 2.346-.857 3.2-1.56l-.014-2.078zM.974 45.265l-.004.646c.082 1.06.56 2.043 1.33 2.87l-.013-1.997c-.524-.455-.968-.965-1.313-1.52zm22.724-12.46l.013 1.935c.675-.787 1.094-1.704 1.17-2.688l-.003-.647a6.7 6.7 0 0 1-1.179 1.4zm3.968 16.328l.017 2.232c1.245-.315 2.348-.857 3.213-1.56l-.015-2.075c-.915.635-2 1.12-3.215 1.403zm-2.5-8.803c-3.5 0-6.478 1.733-7.4 4.097.75 1.903 2.82 3.398 5.433 3.907.008-.001.016-.003.025-.003a.38.38 0 0 1 .166.037c.574.1 1.17.155 1.787.155 3.5 0 6.478-1.733 7.4-4.097-.932-2.364-3.9-4.097-7.4-4.097zm0 9.1c-.525 0-1.038-.04-1.537-.1l.016 2.253a10.36 10.36 0 0 0 1.52.11c.58 0 1.145-.05 1.7-.14l-.017-2.244a11.02 11.02 0 0 1-1.673.127zm7.7-3.738a6.64 6.64 0 0 1-1.18 1.4l.014 1.933c.674-.787 1.093-1.703 1.17-2.686l-.004-.647zm-13.262 2.143l.015 2.113c.878.67 1.976 1.18 3.208 1.47l-.016-2.244c-1.198-.265-2.288-.727-3.208-1.338zm-8.45.89l.017 2.235c1.244-.315 2.346-.858 3.212-1.56l-.015-2.076c-.915.634-2.008 1.118-3.213 1.402zm6.313-3.036l-.004.636c.08 1.064.56 2.05 1.33 2.88L18.8 47.2c-.524-.455-.968-.965-1.313-1.52zm-8.805 3.322a11.02 11.02 0 0 1-1.535-.109l.015 2.255a10.44 10.44 0 0 0 1.521.111 10.38 10.38 0 0 0 1.691-.139l-.017-2.247a11.04 11.04 0 0 1-1.674.128zm0-9.088c-3.5 0-6.478 1.733-7.4 4.094.75 1.903 2.82 3.398 5.433 3.907.01-.001.017-.003.026-.003a.38.38 0 0 1 .166.038 10.38 10.38 0 0 0 1.785.155c3.5 0 6.478-1.733 7.4-4.097-.932-2.362-3.9-4.094-7.4-4.094zM3.1 47.408l.014 2.114c.878.67 1.976 1.18 3.2 1.47l-.015-2.247c-1.19-.265-2.28-.725-3.21-1.337zm16.198-9.316c-.678.134-1.388.205-2.12.205a10.95 10.95 0 0 1-2.105-.203c.93.8 1.6 1.8 1.92 2.888.43-1.116 1.236-2.108 2.304-2.9zM15.2 46.666l.014 1.934c.674-.788 1.093-1.704 1.17-2.688l-.003-.647a6.69 6.69 0 0 1-1.18 1.401z"/></svg>
